brandFactory_export/1.Light/Pagar factura_1Light.svg

<?xml version="1.0" encoding="UTF-8"?>
<svg width="24px" height="24px" viewBox="0 0 24 24" version="1.1" xmlns="http://www.w3.org/2000/svg" xmlns:xlink="http://www.w3.org/1999/xlink">
    <title>1.Light/Pagar factura_1Light</title>
    <g id="Symbols" stroke="none" stroke-width="1" fill="none" fill-rule="evenodd">
        <g id="1.Light/Pagar-factura_1Light" fill="#5CB615" fill-rule="nonzero">
            <path d="M16.8571429,2.61124455e-13 C16.9110644,2.61124455e-13 16.9621265,0.0128676471 17.0074101,0.0356838916 C17.0394908,0.0514353661 17.0693712,0.0724427702 17.0957983,0.0974789916 L23.4991597,6.50084034 C23.5625253,6.56420596 23.5952621,6.64642006 23.5973702,6.72926121 C23.5965497,6.73390915 23.5966387,6.73837326 23.5966387,6.74285714 L23.5966387,22.5882353 C23.5966387,23.2672269 23.2067227,23.6605042 22.5277311,23.6605042 L21.9432773,23.657563 L21.9432773,23.657563 L6.83361345,23.6571429 C6.12436975,23.6571429 5.73109244,23.2605042 5.73109244,22.5478992 L5.73072624,14.2795856 C3.97527885,14.2195358 2.59689896,13.7185813 1.63697479,12.7932773 C0.571428572,11.7647059 0.0302521012,10.2252101 0.0302521012,8.21848739 C0.0302521012,6.21176471 0.571428572,4.67226891 1.63697479,3.64369748 C2.59763666,2.71453272 3.97739764,2.21627268 5.73477405,2.15721411 L5.73445378,1.09915966 C5.73445378,0.406722689 6.13445378,0.00672268908 6.83361345,0.00672268908 C7.61008403,2.61124455e-13 13.3243697,2.61124455e-13 16.8571429,2.61124455e-13 Z M16.5202521,0.675 L10.9180186,0.675990494 C8.90440756,0.676388655 7.23067227,0.677226891 6.83361345,0.678991597 C6.50756303,0.678991597 6.40672269,0.776470588 6.40672269,1.09915966 L6.4062521,2.156 L6.43016042,2.15645749 C8.19864499,2.21188102 9.5863569,2.71043005 10.5512605,3.64369748 C11.6168067,4.67226891 12.1579832,6.21176471 12.1579832,8.21848739 C12.1579832,10.2252101 11.6168067,11.7647059 10.5512605,12.7932773 C9.58152522,13.7280385 8.1877441,14.2297317 6.40405336,14.2812886 L6.40336134,22.5478992 C6.40336134,22.8907563 6.49747899,22.9848739 6.83361345,22.9848739 L22.5277311,22.9848739 C22.8336134,22.9848739 22.9243697,22.8907563 22.9277311,22.5848739 L22.9277311,7.0789916 L20.0014748,7.07806849 C19.6715042,7.07757143 19.447563,7.07680672 19.3310924,7.07563025 C18.4899149,7.07240116 17.8108188,6.78378479 17.3314264,6.25448086 C16.810539,5.68186028 16.524509,4.82621082 16.5210084,3.74453782 L16.5202521,0.675 Z M19.6537815,18.3932773 C19.8386555,18.3932773 19.989916,18.5445378 19.989916,18.7294118 C19.989916,18.9142857 19.8386555,19.0655462 19.6537815,19.0655462 L9.71764706,19.0655462 C9.53277311,19.0655462 9.38151261,18.9142857 9.38151261,18.7294118 C9.38151261,18.5445378 9.53277311,18.3932773 9.71764706,18.3932773 L19.6537815,18.3932773 Z M19.6571429,14.4605042 C19.8420168,14.4605042 19.9932773,14.6117647 19.9932773,14.7966387 C19.9932773,14.9815126 19.8386555,15.1327731 19.6537815,15.1327731 L11.1058824,15.1327731 C10.9210084,15.1327731 10.7697479,14.9815126 10.7697479,14.7966387 C10.7697479,14.6117647 10.9210084,14.4605042 11.1058824,14.4605042 L19.6571429,14.4605042 Z M6.09411765,2.82352941 C4.34285714,2.82352941 3.00168067,3.26386555 2.10084034,4.12773109 C1.1697479,5.02521008 0.699159664,6.4 0.699159664,8.21848739 C0.699159664,10.0369748 1.1697479,11.4117647 2.10084034,12.3092437 C2.99831933,13.1764706 4.34285714,13.6134454 6.09411765,13.6134454 C7.84537815,13.6134454 9.18655462,13.1764706 10.087395,12.3092437 C11.0151261,11.4117647 11.4890756,10.0369748 11.4890756,8.21848739 C11.4890756,6.4 11.0184874,5.02521008 10.087395,4.12773109 C9.18991597,3.2605042 7.84537815,2.82352941 6.09411765,2.82352941 Z M6.04369748,4.08739496 C6.22857143,4.08739496 6.37983193,4.23865546 6.37983193,4.42352941 L6.38045694,4.78579452 C6.86643877,4.83899722 7.31509923,4.98407831 7.67394958,5.20672269 C7.83529412,5.30420168 7.92268908,5.44537815 7.92268908,5.59663866 C7.92268908,5.81848739 7.74117647,6 7.51932773,6 C7.42857143,5.99663866 7.34453782,5.9697479 7.26386555,5.92941176 L7.2605042,5.92605042 C6.96245818,5.76122194 6.6750292,5.6570623 6.37987831,5.6064397 L6.3792521,7.765 L6.43062672,7.77213853 C7.30990673,7.90868116 8.29919635,8.3460657 8.29919635,9.61344538 C8.30514001,10.7071035 7.58061188,11.4315267 6.38062086,11.578909 L6.37983193,12.2016807 C6.37983193,12.3865546 6.22857143,12.5378151 6.04369748,12.5378151 C5.85882353,12.5378151 5.70756303,12.3865546 5.70756303,12.2016807 L5.7072521,11.598 L5.66697329,11.5965418 C5.02355016,11.5482934 4.40373483,11.3318394 3.86890756,10.9613445 C3.73109244,10.8638655 3.66386555,10.7428571 3.66386555,10.5848739 C3.66722689,10.3529412 3.85546219,10.1680672 4.08739496,10.1714286 C4.18823529,10.1747899 4.28571429,10.205042 4.36638656,10.2621849 C4.81242945,10.5595468 5.26081358,10.732823 5.70763107,10.7820135 L5.7072521,8.521 L5.57106873,8.50045522 C4.12910359,8.24776731 3.8184874,7.39042748 3.8184874,6.69915966 C3.8184874,5.60067482 4.55110784,4.86556971 5.70715514,4.77293942 L5.70756303,4.42352941 C5.70756303,4.23865546 5.85882353,4.08739496 6.04369748,4.08739496 Z M19.6537815,10.5277311 C19.8386555,10.5277311 19.989916,10.6789916 19.989916,10.8638655 C19.989916,11.0487395 19.8386555,11.2 19.6537815,11.2 L13.2504202,11.2 C13.0655462,11.2 12.9142857,11.0487395 12.9142857,10.8638655 C12.9142857,10.6789916 13.0655462,10.5277311 13.2504202,10.5277311 L19.6537815,10.5277311 Z M6.3817384,8.61781633 L6.3805264,10.7646985 C7.05959304,10.6516956 7.46554622,10.2453823 7.46554622,9.65042017 C7.46554622,9.24383754 7.32931476,8.80945256 6.3817384,8.61781633 Z M4.65210084,6.65210084 C4.65210084,7.02713801 4.77932899,7.47132091 5.70616767,7.66602057 L5.70651152,5.58246044 C5.05064611,5.6566626 4.65210084,6.05135641 4.65210084,6.65210084 Z M21.6222541,6.40610901 L22.4470588,6.40672269 L22.4470588,6.40672269 L17.1932773,1.14957983 L17.1932773,3.74453782 C17.1966387,4.73277311 17.4756303,6.39327731 19.3277311,6.40336134 L19.8319025,6.40397502 C20.2313241,6.40458113 20.829055,6.40550291 21.6222541,6.40610901 Z" id="Pagar-factura_1Light"></path>
        </g>
    </g>
</svg>

<svg width="24" height="24" viewBox="0 0 24 24" xmlns="http://www.w3.org/2000/svg"><path d="M16.857 0a.36.36 0 01.239.097l6.403 6.404a.334.334 0 01.098.228v15.859c0 .68-.39 1.073-1.07 1.073l-.584-.003H6.833c-.709 0-1.102-.397-1.102-1.11V14.28c-1.756-.06-3.134-.561-4.094-1.487C.571 11.765.03 10.225.03 8.218c0-2.006.541-3.546 1.607-4.574.96-.93 2.34-1.428 4.098-1.487V1.1c0-.692.4-1.092 1.099-1.092C7.61 0 13.324 0 16.857 0zm-.337.675l-5.602.001c-2.014 0-3.687.001-4.084.003-.326 0-.427.097-.427.42v1.057h.023c1.769.056 3.156.554 4.121 1.488 1.066 1.028 1.607 2.568 1.607 4.574 0 2.007-.541 3.547-1.607 4.575-.97.935-2.363 1.437-4.147 1.488v8.267c0 .343.093.437.43.437h15.694c.306 0 .396-.094.4-.4V7.079H20l-.67-.003c-.841-.004-1.52-.292-2-.822-.52-.572-.806-1.428-.81-2.51V.676zm3.134 17.718c.185 0 .336.152.336.336a.337.337 0 01-.336.337H9.718a.337.337 0 01-.336-.337c0-.184.15-.336.336-.336h9.936zm.003-3.932c.185 0 .336.15.336.336a.34.34 0 01-.34.336h-8.547a.337.337 0 01-.336-.336c0-.185.151-.336.336-.336h8.551zM6.094 2.824c-1.751 0-3.092.44-3.993 1.304C1.17 5.025.699 6.4.699 8.218c0 1.819.47 3.194 1.402 4.091.897.867 2.242 1.304 3.993 1.304s3.093-.437 3.993-1.304c.928-.897 1.402-2.272 1.402-4.09 0-1.819-.47-3.194-1.402-4.091-.897-.867-2.242-1.304-3.993-1.304zm-.05 1.263c.185 0 .336.152.336.337v.362a3.11 3.11 0 011.294.42c.161.098.249.24.249.39A.405.405 0 017.519 6a.618.618 0 01-.255-.07l-.003-.004a2.767 2.767 0 00-.881-.32v2.159l.05.007c.88.137 1.87.574 1.87 1.841.005 1.094-.72 1.819-1.92 1.966v.623a.337.337 0 01-.336.336.337.337 0 01-.336-.336v-.604l-.041-.001a3.629 3.629 0 01-1.798-.636.436.436 0 01-.205-.376.417.417 0 01.423-.414.51.51 0 01.28.091c.445.298.894.47 1.34.52V8.521l-.136-.02C4.13 8.247 3.818 7.39 3.818 6.698c0-1.098.733-1.833 1.89-1.926v-.35c0-.184.15-.336.336-.336zm13.61 6.44a.337.337 0 010 .672l-6.404.001a.337.337 0 01-.336-.336c0-.185.152-.336.336-.336h6.404zM6.382 8.618l-.001 2.148c.679-.113 1.085-.52 1.085-1.115 0-.406-.137-.84-1.084-1.032zm-1.73-1.965c0 .375.127.82 1.054 1.014V5.582c-.655.075-1.054.47-1.054 1.07zm16.97-.246h.825L17.193 1.15v2.595c.004.988.283 2.648 2.135 2.658l.504.001 1.79.002z" fill="#5CB615" fill-rule="nonzero"/></svg>
